flaticon/stationery/pen-3.svg

<svg xmlns="http://www.w3.org/2000/svg" width="32" height="32" viewBox="0 0 24 24">
    <path d="M 23.339844 0.664062 C 22.3125 -0.363281 20.804688 -0.0664062 20.144531 0.664062 L 18.292969 2.515625 C 17.871094 2.253906 17.429688 2.023438 16.964844 1.824219 C 16.773438 1.742188 16.550781 1.785156 16.402344 1.933594 L 2.765625 15.570312 C 2.691406 15.644531 2.644531 15.738281 2.625 15.839844 L 1.574219 21.703125 L 0.148438 23.128906 C -0.0507812 23.328125 -0.0507812 23.652344 0.148438 23.851562 C 0.347656 24.050781 0.671875 24.050781 0.871094 23.851562 L 2.296875 22.425781 L 8.160156 21.375 C 8.261719 21.355469 8.355469 21.308594 8.433594 21.234375 L 22.070312 7.597656 C 22.21875 7.449219 22.261719 7.226562 22.179688 7.035156 C 21.980469 6.574219 21.75 6.128906 21.488281 5.707031 L 23.339844 3.855469 C 24.21875 2.976562 24.21875 1.542969 23.339844 0.664062 Z M 2.679688 21.320312 L 3.511719 16.675781 C 5.152344 17.523438 6.476562 18.847656 7.324219 20.488281 Z M 8.222656 20 C 7.28125 18.1875 5.816406 16.71875 4 15.777344 L 16.875 2.902344 C 18.734375 3.785156 20.214844 5.265625 21.097656 7.125 Z M 22.617188 3.132812 L 20.894531 4.855469 C 20.386719 4.199219 19.800781 3.613281 19.144531 3.105469 L 20.867188 1.382812 C 21.335938 0.917969 22.148438 0.917969 22.617188 1.382812 C 23.101562 1.867188 23.101562 2.652344 22.617188 3.132812 Z M 22.617188 3.132812"/>
</svg>

<svg xmlns="http://www.w3.org/2000/svg" width="32" height="32" viewBox="0 0 24 24">
    <path d="M23.34.664c-1.027-1.027-2.535-.73-3.195 0l-1.852 1.852a9.941 9.941 0 0 0-1.328-.692.51.51 0 0 0-.563.11L2.766 15.57a.515.515 0 0 0-.141.27l-1.05 5.863L.147 23.13a.512.512 0 0 0 .723.723l1.426-1.426 5.863-1.051a.542.542 0 0 0 .274-.14L22.07 7.597a.51.51 0 0 0 .11-.563c-.2-.46-.43-.906-.692-1.328l1.852-1.852a2.261 2.261 0 0 0 0-3.19zM2.68 21.32l.832-4.644a8.851 8.851 0 0 1 3.812 3.812zM8.223 20A9.86 9.86 0 0 0 4 15.777L16.875 2.902a8.866 8.866 0 0 1 4.223 4.223zM22.617 3.133l-1.722 1.722a9.765 9.765 0 0 0-1.75-1.75l1.722-1.722c.469-.465 1.281-.465 1.75 0 .485.484.485 1.27 0 1.75zm0 0"/>
</svg>
